src/extras-unicode/subdivision-flag/1F3F4-E0064-E0065-E0062-E0065-E007F.svg

<svg id="emoji" viewBox="0 0 72 72" version="1.1" xmlns="http://www.w3.org/2000/svg">
  <g id="grid">
    <path fill="#B3B3B3" d="M68 4V68H4V4H68ZM72 0H0V72H72V0Z"/>
    <path fill="none" stroke="#00A5FF" stroke-miterlimit="10" stroke-width="0.1" d="m12.92 10.96h46.15c0.51 0 0.9992 0.2026 1.36 0.5633 0.3607 0.3606 0.5633 0.8498 0.5633 1.36v46.15c0 0.51-0.2026 0.9992-0.5633 1.36-0.3606 0.3606-0.8498 0.5632-1.36 0.5632h-46.15c-0.51 0-0.9992-0.2026-1.36-0.5632-0.3607-0.3607-0.5633-0.8499-0.5633-1.36v-46.15c0-0.51 0.2026-0.9991 0.5632-1.36 0.3607-0.3606 0.8498-0.5632 1.36-0.5632z"/>
    <path fill="none" stroke="#00A5FF" stroke-miterlimit="10" stroke-width="0.1" d="m53.75 4h-35.49c-1.245 0-2.254 1.009-2.254 2.254v59.49c0 1.245 1.009 2.254 2.254 2.254h35.49c1.245 0 2.254-1.009 2.254-2.254v-59.49c0-1.245-1.009-2.254-2.254-2.254z"/>
    <path fill="none" stroke="#00A5FF" stroke-miterlimit="10" stroke-width="0.1" d="m68 53.75v-35.49c0-1.245-1.009-2.254-2.254-2.254h-59.49c-1.245 0-2.254 1.009-2.254 2.254v35.49c0 1.245 1.009 2.254 2.254 2.254h59.49c1.245 0 2.254-1.009 2.254-2.254z"/>
    <path fill="none" stroke="#00A5FF" stroke-miterlimit="10" stroke-width="0.1" d="m36 65c16.02 0 29-12.98 29-29s-12.98-29-29-29-29 12.98-29 29 12.98 29 29 29z"/>
  </g>
  <g id="color">
    <path fill="#fff" d="M67 17H5.31909V54.8044H67V17Z"/>
    <rect x="5" y="17" width="62" height="8" fill="#D22F27"/>
    <rect x="5" y="47" width="62" height="8" fill="#D22F27"/>
  </g>
  <g id="line">
    <path fill="none" stroke="#000" stroke-linecap="round" stroke-linejoin="round" stroke-width="2" d="M67 17H5V55H67V17Z"/>
    <path fill="none" stroke="#000" stroke-linecap="round" stroke-linejoin="bevel" d="m29 29h2.5"/>
    <path fill-rule="evenodd" stroke="#000" stroke-linecap="round" stroke-linejoin="round" d="m34.45 39.55c-0.1988 1.895-0.0059 2.834 0.5562 4.637-1.005 1.063-1.834 2.039-3.279 2.039l-0.3433-1.028 1.62-0.5105c-0.9113-1.066-2.173-2.228-2.002-2.999-2.507 0.2343-2.746 1.631-3.661 3.763l-3.004-0.9997 0.4613-1.107 1.698 0.8426c-0.4406-2.904 0.9531-4.623 3.004-5.998-0.8301-0.6769-0.949-1.62-0.9503-2.607-2.516 0.6583-4.081 0.8835-5.557-1.391l0.5006-0.9997c1.766 3.186 2.875 1.521 5.084 0.2249-4.49-2.806-3.859-1.68-5.084-4.724l1.001-0.4998c0.5779 2.902 2.239 2.353 4.505 2.999l2.503-1.999c-0.6635-2.516-2.985-0.184-3.004-2.499h1.502c1.595-1.816 3.339-0.361 4.505-0.4998l-0.5006 0.9997c0.1421 1.168 3e-3 1.993-0.5006 2.999 1.237 1.851-0.1047 2.506-0.3807 4.573-0.1109 0.8306 1.116 3.144 1.326 4.786z" clip-rule="evenodd"/>
  </g>
</svg>

<svg id="emoji" viewBox="0 0 72 72" xmlns="http://www.w3.org/2000/svg">
  <g id="grid">
    <path fill="#B3B3B3" d="M68 4V68H4V4H68ZM72 0H0V72H72V0Z"/>
    <path fill="none" stroke="#00A5FF" stroke-miterlimit="10" stroke-width="0.1" d="M12.923 10.9583H59.0769C59.5869 10.9583 60.0761 11.1609 60.4367 11.5216C60.7974 11.8822 61 12.3714 61 12.8814V59.0352C61 59.5452 60.7974 60.0344 60.4367 60.3951C60.0761 60.7557 59.5869 60.9583 59.0769 60.9583H12.9231C12.4131 60.9583 11.9239 60.7557 11.5633 60.3951C11.2026 60.0344 11 59.5452 11 59.0352V12.8813C11 12.3713 11.2026 11.8822 11.5632 11.5215C11.9239 11.1609 12.413 10.9583 12.923 10.9583V10.9583Z"/>
    <path fill="none" stroke="#00A5FF" stroke-miterlimit="10" stroke-width="0.1" d="M53.7463 4H18.2537C17.009 4 16 5.00902 16 6.2537V65.7463C16 66.991 17.009 68 18.2537 68H53.7463C54.991 68 56 66.991 56 65.7463V6.2537C56 5.00902 54.991 4 53.7463 4Z"/>
    <path fill="none" stroke="#00A5FF" stroke-miterlimit="10" stroke-width="0.1" d="M68 53.7463V18.2537C68 17.009 66.991 16 65.7463 16L6.2537 16C5.00902 16 4 17.009 4 18.2537V53.7463C4 54.991 5.00902 56 6.2537 56L65.7463 56C66.991 56 68 54.991 68 53.7463Z"/>
    <path fill="none" stroke="#00A5FF" stroke-miterlimit="10" stroke-width="0.1" d="M36 65C52.0163 65 65 52.0163 65 36C65 19.9837 52.0163 7 36 7C19.9837 7 7 19.9837 7 36C7 52.0163 19.9837 65 36 65Z"/>
  </g>
  <g id="color">
    <path fill="#fff" d="M67 17H5.31909V54.8044H67V17Z"/>
    <rect x="5" y="17" width="62" height="8" fill="#D22F27"/>
    <rect x="5" y="47" width="62" height="8" fill="#D22F27"/>
  </g>
  <g id="line">
    <path fill="none" stroke="#000" stroke-linecap="round" stroke-linejoin="round" stroke-width="2" d="M67 17H5V55H67V17Z"/>
    <path fill="none" stroke="#000" stroke-linecap="round" stroke-linejoin="bevel" d="M29 29H31.5"/>
    <path fill="#000" fill-rule="evenodd" stroke="#000" stroke-linecap="round" stroke-linejoin="round" d="M33.5 39.5L34 42L35 44L33 46H32L31.5 44.5H33L31 41.5L29 42L27.5 45.5L24.5 44.5L25 43L26.5 44V41L28 39L29.5 38L28.5 36L25.5 36.5L23 34L23.5 33L25.5 35L28.5 33.5L24.5 31L23.5 28.5L24.5 28L25.5 30L29 31L31.5 29L30.5 27.5H29L28.5 26.5H30L31 26H34.5L34 27V29L33.5 30V39.5Z" clip-rule="evenodd"/>
  </g>
</svg>
